packages/icons/src/ce-visibility-plus.svg

<svg viewBox="0 0 16 16" xmlns="http://www.w3.org/2000/svg"><g fill="#0278d5"><path d="m0 13.46h2.043v-12.794h-2.043v12.792zm4.085 0h2.043v-9.004h-2.043v9.002zm4.085-5.213v5.211h2.043v-5.21h-2.043z" opacity=".3"/><path d="m15.364 14.58-2.149-1.994a4.302 4.302 0 0 0 .818-2.513c0-2.516-2.206-4.563-4.917-4.563s-4.917 2.047-4.917 4.563c0 2.515 2.206 4.562 4.917 4.562 1 0 1.931-.28 2.709-.759l2.148 1.994a.518.518 0 0 0 .695 0l.696-.645a.433.433 0 0 0 0-.645zm-10.182-4.507c0-2.013 1.765-3.65 3.934-3.65s3.934 1.637 3.934 3.65c0 2.012-1.765 3.65-3.934 3.65s-3.934-1.638-3.934-3.65zm7.576-9.407h-.945v4.096h.945z"/><path d="m14.333 3.055v-1.023h-4.095v1.023z"/></g></svg>

<svg viewBox="0 0 16 16" xmlns="http://www.w3.org/2000/svg"><path d="M0 13.46h2.043V.666H0v12.792Zm4.085 0h2.043V4.456H4.085v9.002ZM8.17 8.247v5.211h2.043v-5.21H8.17Z" fill="#0278D5" opacity=".3"/><path d="m15.364 14.58-2.149-1.994a4.302 4.302 0 0 0 .818-2.513c0-2.516-2.206-4.563-4.917-4.563s-4.917 2.047-4.917 4.563c0 2.515 2.206 4.562 4.917 4.562 1 0 1.931-.28 2.709-.759l2.148 1.994a.518.518 0 0 0 .695 0l.696-.645a.433.433 0 0 0 0-.645ZM5.182 10.073c0-2.013 1.765-3.65 3.934-3.65 2.169 0 3.934 1.637 3.934 3.65 0 2.012-1.765 3.65-3.934 3.65-2.169 0-3.934-1.638-3.934-3.65ZM12.758.666h-.945v4.096h.945V.666Z" fill="#0278D5"/><path d="M14.333 3.055V2.032h-4.095v1.023h4.095Z" fill="#0278D5"/></svg>
